!!!COM: Corelli, Arcangelo
!!!OTL: 
!!!ONM: Opus 3, No. 10
!!!OMV: 2
!!!CDT: 1653/2/17/-1713/1/8/
!!!OCY: Italia
**kern	**kern	**kern	**kern
*clefC	*clefC	*clefG	*clefG
*k[]	*k[]	*k[]	*k[]
*a:	*a:	*a:	*a:
*M4/4	*M4/4	*M4/4	*M4/4
=1	=1	=1	=1
1r	1r	1r	8r
.	.	.	8ee
.	.	.	8ee
.	.	.	8ee
.	.	.	8ff
.	.	.	8ff
.	.	.	8ff
.	.	.	16gg
.	.	.	16ff
=2	=2	=2	=2
1r	1r	1r	8ee
.	.	.	8aa
.	.	.	8aa
.	.	.	16bb
.	.	.	16aa
.	.	.	8gg#
.	.	.	8aa
.	.	.	8.aa
.	.	.	16gg#
=3	=3	=3	=3
1r	1r	8r	8aa
.	.	8a	8ee
.	.	8a	8cc
.	.	8a	8a
.	.	8cc	8ee
.	.	8cc	8ee
.	.	8cc	8ee
.	.	16dd	16ff#
.	.	16cc	16ee
=4	=4	=4	=4
1r	1r	8b	8dd#
.	.	8ee	8gg
.	.	8ee	8gg
.	.	16ff#	16aa
.	.	16ee	16gg
.	.	8dd#	8ff#
.	.	8ee	8gg
.	.	8.ee	4ff#
.	.	16dd#	.
=5	=5	=5	=5
1r	1r	8ee	8ee
.	.	8gg#	8ee
.	.	8gg#	8ee
.	.	8gg#	8ee
.	.	8aa	8ff
.	.	8aa	8ff
.	.	8aa	8ff
.	.	16bb	16gg
.	.	16aa	16ff
=6	=6	=6	=6
8r	8r	8gg#	8ee
8E	8E	8ee	8g#
8E	8E	8ee	8g#
8E	8E	8ee	8g#
8F	8F	8ee	8a
8F	8F	8a	8a
8F	8F	8dd	8a
16G	16G	8dd	16b
16F	16F	.	16a
=7	=7	=7	=7
8E	8E	8dd	8g#
8AA	8AA	8cc	8ee
8A	8A	8cc	8ee
8A	8A	16dd	16ff
.	.	16cc	16ee
4A	4A	8b	8dd
.	.	8b	8dd
4G#	4G#	8b	8dd
.	.	8b	16ee
.	.	.	16dd
=8	=8	=8	=8
8A	8A	8b	8cc
8AA	8AA	8e	8cc
8C	8C	8ee	8cc
8D	8D	16dd	16b
.	.	16cc	16a
8E	8E	8b	8g#
8D	8D	8cc	8a
8E	8E	8.b	8.a
8EE	8EE	.	.
.	.	16b	16g#
=9	=9	=9	=9
8AA	8AA	8a	8a
8A	8A	8cc	8ff
8A	8A	8cc	8ff
8A	8A	8cc	8ff
8G	8G	8b	8ff
8G	8G	8b	8ee
8G	8G	8b	8ee
16A	16A	16cc	8ee
16G	16G	16b	.
=10	=10	=10	=10
8F	8F	8a	8ee
8F	8F	8aa	8a
8F	8F	8aa	8dd
16G	16G	8aa	8dd
16F	16F	.	.
8E	8E	8gg	8dd
8E	8E	8gg	8g
8E	8E	8gg	8cc
16F	16F	16aa	8cc
16E	16E	16gg	.
=11	=11	=11	=11
8D	8D	8ff	8cc
16E	16E	8ff	8b
16F	16F	.	.
8G	8G	8ff	8b
8GG	8GG	16gg	16a
.	.	16ff	16b
8C	8C	8ee	4.cc
8C	8C	8gg	.
8E	8E	8gg	.
8C	8C	8gg	8gg
=12	=12	=12	=12
8F	8F	8gg	8aa
8F	8F	8cc	8aa
8A	8A	8ff	8aa
8F	8F	8ff	16gg
.	.	.	16aa
4G	4G	8ff	8bb
.	.	16gg	8gg
.	.	16ff	.
8r	8r	8ee	8r
8E	8E	8g	8ccc
=13	=13	=13	=13
8F	8F	8a	8aa
8G	8G	8b	8gg
8A	8A	8cc	8ff
8E	8E	8cc	8ee
8F	8F	4.cc	2dd
8D	8D	.	.
8G	8G	.	.
8GG	8GG	8b	.
=14	=14	=14	=14
8C	8C	4cc	8cc
8c	8c	.	8ee
8c	8c	4.r	8ee
16B	16B	.	16dd
16A	16A	.	16cc
8B	8B	.	8dd
8B	8B	8dd	8g
8B	8B	8dd	[4gg
8c#	8c#	8ee	.
=15	=15	=15	=15
8d	8d	4a	8gg]
8d	8d	.	8ff
8d	8d	4.r	8ff
16c	16c	.	16ee
16B	16B	.	16dd
8c	8c	.	8ee
8c	8c	8ee	8a
8c	8c	8ee	[4aa
8d	8d	8ff	.
=16	=16	=16	=16
8e	8e	8b	8aa]
8e	8e	8bb	8gg
8e	8e	8bb	8gg
8A	8A	16aa	16ff#
.	.	16gg	16ee
8B	8B	4.ff#	8dd#
8B	8B	.	8b
8B	8B	.	[4bb
8B	8B	16gg	.
.	.	16ff#	.
=17	=17	=17	=17
8c	8c	4.ee	8bb]
8c	8c	.	8ee
8c	8c	.	4.aa
16d	16d	16ff#	.
16c	16c	16ee	.
8B	8B	8dd#	.
8E	8E	8bb	8gg
8G	8G	8bb	8gg
8A	8A	16aa	16ff#
.	.	16gg	16ee
=18	=18	=18	=18
8B	8B	8ff#	8dd#
8A	8A	8gg	8ee
8B	8B	8.ff#	8.ee
8BB	8BB	.	.
.	.	16ff#	16dd#
4E	4E	4ee	8ee
.	.	.	8bb
4r	4r	4r	8bb
.	.	.	8bb
=19	=19	=19	=19
1r	1r	2r	8ccc
.	.	.	8ccc
.	.	.	8ccc
.	.	.	16ddd
.	.	.	16ccc
.	.	8r	8bb
.	.	8ee	8gg#
.	.	8ee	8gg#
.	.	8ee	8gg#
=20	=20	=20	=20
2r	2r	8ff	8aa
.	.	8ff	8aa
.	.	8ff	8aa
.	.	16gg	16bb
.	.	16ff	16aa
8r	8r	8ee	8gg#
8E	8E	8g#	8ee
8E	8E	8g#	8ee
8E	8E	8g#	8ee
=21	=21	=21	=21
8F	8F	8a	8ee
8F	8F	8a	8a
8F	8F	8a	4.dd
16G	16G	16b	.
16F	16F	16a	.
8E	8E	8g#	.
8AA	8AA	8ee	8cc
8A	8A	8ee	8cc
8A	8A	16dd	16b
.	.	16cc	16a
=22	=22	=22	=22
4A	4A	8dd	4b
.	.	8dd	.
4G#	4G#	8dd	4.b
.	.	16ee	.
.	.	16dd	.
8A	8A	4.cc	.
8A	8A	.	8e
8c	8c	.	[4a
8A	8A	16dd	.
.	.	16cc	.
=23	=23	=23	=23
8e	8e	4.b	4a]
8E	8E	.	.
8G	8G	.	4.g
8E	8E	8b	.
4.AA	8AA	8cc	.
.	8BB	8b	8g
.	8C	[4a	8f#
8AA	8AA	.	8e
=24	=24	=24	=24
8BB	8BB	4a]	8d#
8B	8B	.	8B
8c	8c	4g	2e
8G	8G	.	.
8A	8A	2f#	.
8F#	8F#	.	.
8B	8B	.	4d#
8BB	8BB	.	.
=25	=25	=25	=25
8E	8E	4e	8r
8e	8e	.	8ee
8e	8e	4.r	8ee
8d	8d	.	8ee
8c#	8c#	.	8aa
8A	8A	8cc#	8aa
8B	8B	8dd	8aa
8c#	8c#	8ee	16gg
.	.	.	16aa
=26	=26	=26	=26
8d	8d	4a	8ff
8d	8d	.	8ff
8d	8d	4.r	8ff
16c	16c	.	16ee
16d	16d	.	16ff
8B	8B	.	8gg
8G	8G	8b	8gg
8A	8A	8cc	8gg
8B	8B	8dd	8ff
=27	=27	=27	=27
8c	8c	4g	8ee
8c	8c	.	8ee
8c	8c	4.r	8ee
16B	16B	.	16dd
16A	16A	.	16cc
8G#	8G#	.	8b
8E	8E	8g#	8cc
8F#	8F#	8a	8dd
8G#	8G#	8b	8ee
=28	=28	=28	=28
8A	8A	4.e	8cc
8A	8A	.	8a
8A	8A	.	4.ff
16B	16B	8cc	.
16A	16A	.	.
8G	8G	4.b	.
8G	8G	.	16ee
.	.	.	16dd
8G	8G	.	[4ee
16A	16A	16cc	.
16G	16G	16b	.
=29	=29	=29	=29
8F	8F	4.a	8ee]
8F	8F	.	16dd
.	.	.	16cc
8F	8F	.	4dd
16G	16G	8aa	.
16F	16F	.	.
4E	4E	8gg#	8ee
.	.	8e	8g#
[4e	[4e	8e	8g#
.	.	8e	8g#
=30	=30	=30	=30
4e]	4e]	8f#	8a
.	.	8f#	8a
2d	2d	8f#	8b
.	.	16e	8b
.	.	16f#	.
.	.	8g#	4e
.	.	8e	.
4c	4c	[4a	4ee
=31	=31	=31	=31
4B	4B	4a]	4.dd
4E	4E	4g#	.
.	.	.	16cc
.	.	.	16b
8r	8r	8r	8cc
8A	8A	8cc	8a
8A	8A	8cc	[4ff
8A	8A	8cc	.
=32	=32	=32	=32
8B	8B	8dd	8ff]
8B	8B	8dd	8dd
8B	8B	8dd	4.gg
16A	16A	16cc	.
16G	16G	16b	.
4.c	4.c	4.ee	.
.	.	.	8ee
.	.	.	[4aa
8A	8A	8ee	.
=33	=33	=33	=33
8d	8d	8ff#	8aa]
8d	8d	8ff#	8ff#
8d	8d	8ff#	4.bb
16c	16c	16ee	.
16B	16B	16ff#	.
4.e	4.e	4.gg#	.
.	.	.	8gg#
.	.	.	[4ccc
8c	8c	8gg#	.
=34	=34	=34	=34
8f	8f	8aa	8ccc]
8f	8f	8aa	8aa
8f	8f	8aa	4ddd
8f	8f	16gg#	.
.	.	16aa	.
8e	8e	8bb	8r
8E	8E	8g#	8ee
8E	8E	8g#	8ee
8E	8E	8g#	8ee
=35	=35	=35	=35
8F	8F	8a	8ee
8F	8F	8a	8a
8F	8F	8a	4.dd
16G	16G	16b	.
16F	16F	16a	.
8E	8E	8g#	.
8AA	8AA	8e	16ee
.	.	.	16dd
[4A	[4A	8r	8cc
.	.	8cc	16b
.	.	.	16a
=36	=36	=36	=36
8A]	8A]	4dd	8b
8G	8G	.	8e
8G	8G	8r	4.ee
16F	16F	8ee	.
16E	16E	.	.
8F	8F	4.a	.
8F	8F	.	8a
8F	8F	.	[4dd
16E	16E	8ff	.
16D	16D	.	.
=37	=37	=37	=37
4E	4E	4g#	4dd]
4AA	4AA	4a	4cc
4E	4E	4g#	4b
4AA	4AA	4cc	4a
=38	=38	=38	=38
4E	4E	4b	2g#
2.r	2.r	2.r	.
.	.	.	2r
==	==	==	==
*-	*-	*-	*-
!!!RWG: This file only contains pitch and duration data.
!!!RWG: Transposing instruments are not transposed.
!!!RWG: Durations of rests and tied notes may be interpreted.
!!!RWG: Key is interpreted using the Humdrum key tool.
!!!SCA: 
!!!YOR: Chrysander Edition
!!!AGN: chamber
!!!AFT: stage1
!!!ENC: F. Bennion
!!!END: 1997/04/15
!!!AST: baroque
!!!YEC: Copyright 1994, Center for Computer Assisted Research in the Humanities
!!!YEM: Rights to all derivative electronic formats reserved.
!!!YEM: Refer to licensing agreement for further details.
!!!YEN: United States of America
!!!EED: W.B. Hewlett
!!!KEY: 599008867
!!!EMD: Converted from MuseData to Humdrum Aug 9, 1999, by Bret Aarden using muse2kern.
!!!VTS: 1690369872
